X: 401
U:~=!turn!
M:C
L:1/8
K:G
"Slow." G>A |\
[1 {GA}B2 A2 A2 d2 | (gf)(ga) (gf)(ed) | (ed)(ef) {/a}g2 fe | d3 e (d<B).A.G | {GA}B2 G2 G2 :|
[2 {GA}B2 A2 A2 G>A | TB2 d2 (cB).A.G | TB2 d2 (ef)(ge) | d3 e (d<e)(ga) | b2 g2 g3 |]


